package/converter/svg/solid/waveform-lines.svg

<svg xmlns="http://www.w3.org/2000/svg" viewBox="0 0 640 512"><!-- Font Awesome Pro 6.0.0-alpha2 by @fontawesome - https://fontawesome.com License - https://fontawesome.com/license (Commercial License) --><path d="M224 96H224C206.327 96 192 110.327 192 128V384C192 401.673 206.327 416 224 416H224C241.673 416 256 401.673 256 384V128C256 110.327 241.673 96 224 96ZM32 224H32C14.327 224 0 238.327 0 256V256C0 273.673 14.327 288 32 288H32C49.673 288 64 273.673 64 256V256C64 238.327 49.673 224 32 224ZM320 0H320C302.327 0 288 14.327 288 32V480C288 497.673 302.327 512 320 512H320C337.673 512 352 497.673 352 480V32C352 14.327 337.673 0 320 0ZM128 192H128C110.327 192 96 206.327 96 224V288C96 305.673 110.327 320 128 320H128C145.673 320 160 305.673 160 288V224C160 206.327 145.673 192 128 192ZM608 224H608C590.327 224 576 238.327 576 256V256C576 273.673 590.327 288 608 288H608C625.673 288 640 273.673 640 256V256C640 238.327 625.673 224 608 224ZM416 128H416C398.327 128 384 142.327 384 160V352C384 369.673 398.327 384 416 384H416C433.673 384 448 369.673 448 352V160C448 142.327 433.673 128 416 128ZM512 64H512C494.327 64 480 78.327 480 96V416C480 433.673 494.327 448 512 448H512C529.673 448 544 433.673 544 416V96C544 78.327 529.673 64 512 64Z"/></svg>

<svg xmlns="http://www.w3.org/2000/svg" viewBox="0 0 640 512"><!--! Font Awesome Pro 6.6.0 by @fontawesome - https://fontawesome.com License - https://fontawesome.com/license (Commercial License) Copyright 2024 Fonticons, Inc. --><path d="M352 32c0-17.7-14.3-32-32-32s-32 14.3-32 32l0 448c0 17.7 14.3 32 32 32s32-14.3 32-32l0-448zM544 96c0-17.7-14.3-32-32-32s-32 14.3-32 32l0 320c0 17.7 14.3 32 32 32s32-14.3 32-32l0-320zM256 128c0-17.7-14.3-32-32-32s-32 14.3-32 32l0 256c0 17.7 14.3 32 32 32s32-14.3 32-32l0-256zm192 32c0-17.7-14.3-32-32-32s-32 14.3-32 32l0 192c0 17.7 14.3 32 32 32s32-14.3 32-32l0-192zM160 224c0-17.7-14.3-32-32-32s-32 14.3-32 32l0 64c0 17.7 14.3 32 32 32s32-14.3 32-32l0-64zM0 256a32 32 0 1 0 64 0A32 32 0 1 0 0 256zm576 0a32 32 0 1 0 64 0 32 32 0 1 0 -64 0z"/></svg>
